src/lib/packages/icons/src/assets/filled/hand-holding-user.svg

<svg width="24" height="24" viewBox="0 0 24 24" fill="none" xmlns="http://www.w3.org/2000/svg">
<path d="M6 17V21C6 21.2652 5.89469 21.5196 5.70715 21.7072C5.51962 21.8947 5.26522 22 5 22H3C2.73478 22 2.48038 21.8947 2.29285 21.7072C2.10531 21.5196 2 21.2652 2 21V17C2 16.7348 2.10531 16.4804 2.29285 16.2929C2.48038 16.1053 2.73478 16 3 16H5C5.26522 16 5.51962 16.1053 5.70715 16.2929C5.89469 16.4804 6 16.7348 6 17ZM19.66 16.02C19.4203 16.0206 19.1852 16.0862 18.98 16.21L16.71 17.57C16.6034 18.1799 16.2854 18.7328 15.8118 19.1315C15.3381 19.5302 14.7391 19.7491 14.12 19.75H11C10.8011 19.75 10.6104 19.6709 10.4697 19.5303C10.3291 19.3896 10.25 19.1989 10.25 19C10.25 18.8011 10.3291 18.6104 10.4697 18.4697C10.6104 18.3291 10.8011 18.25 11 18.25H14.12C14.4184 18.25 14.7045 18.1315 14.9155 17.9206C15.1265 17.7096 15.245 17.4234 15.245 17.125C15.245 16.8266 15.1265 16.5405 14.9155 16.3295C14.7045 16.1185 14.4184 16 14.12 16H9C8.47005 16.0016 7.96225 16.2128 7.58752 16.5875C7.21279 16.9623 7.00158 17.4701 7 18V20C7.00158 20.53 7.21279 21.0378 7.58752 21.4125C7.96225 21.7872 8.47005 21.9984 9 22H14.6C15.5092 22.0001 16.3913 21.6896 17.1 21.12L20.5 18.4C20.6565 18.2758 20.7829 18.1175 20.8695 17.9374C20.9561 17.7573 21.0007 17.5599 21 17.36C21 17.0046 20.8588 16.6638 20.6075 16.4125C20.3562 16.1612 20.0154 16.02 19.66 16.02ZM10 13.5H14C14.2689 13.5286 14.5407 13.4969 14.7958 13.4071C15.0508 13.3173 15.2826 13.1717 15.4742 12.981C15.6659 12.7902 15.8125 12.559 15.9034 12.3043C15.9944 12.0497 16.0274 11.7781 16 11.5091C16.0274 11.1076 15.9686 10.7049 15.8276 10.328C15.6867 9.95115 15.4668 9.60881 15.1827 9.32387C14.8986 9.03893 14.5569 8.81801 14.1804 8.67592C13.804 8.53383 13.4015 8.47386 13 8.50002H11C10.5985 8.47386 10.196 8.53383 9.81958 8.67592C9.44314 8.81801 9.10135 9.03893 8.81726 9.32387C8.53317 9.60881 8.31332 9.95115 8.17236 10.328C8.0314 10.7049 7.97264 11.1076 8 11.5091C7.97259 11.7781 8.00561 12.0497 8.09656 12.3043C8.18751 12.559 8.33413 12.7902 8.52576 12.981C8.71739 13.1717 8.94917 13.3173 9.20422 13.4071C9.45927 13.4969 9.73112 13.5286 10 13.5ZM12 7.00002C12.445 7.00002 12.88 6.8681 13.25 6.62087C13.62 6.37363 13.9084 6.02224 14.0787 5.6111C14.249 5.19997 14.2936 4.74751 14.2068 4.31105C14.12 3.8746 13.9056 3.47374 13.5909 3.15908C13.2763 2.84441 12.8754 2.63005 12.439 2.54323C12.0025 2.45641 11.55 2.50099 11.1389 2.67128C10.7278 2.84158 10.3764 3.13001 10.1292 3.50002C9.88192 3.87003 9.75 4.30501 9.75 4.75002C9.7508 5.34738 9.98876 5.92001 10.4116 6.34194C10.8345 6.76386 11.4076 7.00055 12.005 7.00002H12Z" fill="currentColor"/>
</svg>

<svg xmlns="http://www.w3.org/2000/svg" width="24" height="24" fill="none"><path fill="currentColor" d="M6 17v4a1 1 0 0 1-1 1H3a1 1 0 0 1-1-1v-4a1 1 0 0 1 1-1h2a1 1 0 0 1 1 1Zm13.66-.98c-.24 0-.475.066-.68.19l-2.27 1.36a2.634 2.634 0 0 1-2.59 2.18H11a.75.75 0 0 1 0-1.5h3.12a1.125 1.125 0 1 0 0-2.25H9a2.006 2.006 0 0 0-2 2v2a2.006 2.006 0 0 0 2 2h5.6c.91 0 1.791-.31 2.5-.88l3.4-2.72a1.322 1.322 0 0 0 .5-1.04 1.34 1.34 0 0 0-1.34-1.34ZM10 13.5h4a1.817 1.817 0 0 0 2-1.99 2.822 2.822 0 0 0-3-3.01h-2a2.823 2.823 0 0 0-3 3.01 1.816 1.816 0 0 0 2 1.99ZM12 7a2.25 2.25 0 1 0-1.588-.658c.422.422.996.659 1.593.658H12Z"/></svg>
